Origami/22x22/apps/lugaru.svg

<svg width="22" height="22" version="1.1" viewBox="0 0 22 22" xmlns="http://www.w3.org/2000/svg">
 <circle cx="11" cy="18.5" r="3" style="opacity:.2"/>
 <circle cx="11" cy="18" r="3" style="fill:#8f6943"/>
 <rect x="11" y="18.5" width="1" height="2" rx=".25" ry=".25" style="opacity:.2"/>
 <path d="m2.6766366 1.5038338c-0.075156-0.00632-0.1431199-0.0042-0.2041045 0.00683-0.081313 0.014707-0.1497197 0.044401-0.2070344 0.08982-0.4691518 0.371787-0.3228569 1.8486241 0.4892649 4.9205955 0.4553967 1.722605 0.8309564 2.6399347 1.4775607 3.6113647 0.424576 0.637849 0.6297935 0.87982 1.331074 1.572833 0.628056 0.691897 1.4203035 1.659806 1.4365445 2.473967-0.1803495 1.607186-1.9285128 2.948363-1.9999418 4.316454 0 1.656423 1.3430783 2.99922 2.9999564 2.99922 1.0392617 0.104 2.0695886-1.812182 3.0000436-1.999669 1.123897 0.227149 2.031745 2.005181 3.000044 1.999675 1.656878 0 2.999956-1.342797 2.999956-2.999221-0.07143-1.36809-1.819593-2.709268-1.999942-4.316454 0.01624-0.814161 0.808489-1.78207 1.436545-2.473967 0.70128-0.693013 0.906497-0.934984 1.331074-1.572833 0.646604-0.971431 1.022163-1.88876 1.47756-3.611365 0.812122-3.0719714 0.958417-4.5488086 0.489265-4.9205956-0.05731-0.04542-0.125721-0.075114-0.207034-0.08982-0.06098-0.011028-0.128949-0.01315-0.204105-0.00683-0.225469 0.018947-0.515926 0.115926-0.878919 0.2928926-0.719865 0.3509514-1.423787 0.8697653-2.216829 1.6333596-2.233893 2.6101677-2.802009 4.4146186-4.576239 6.9462724-0.182431 0.125597-0.651376 0.127896-0.651376 0.127896s-0.468945-0.0023-0.651377-0.127896c-1.788835-2.1729717-2.8308997-5.2497339-4.5762382-6.9462721-0.7930415-0.7635942-1.4969645-1.2824082-2.2168293-1.6333644-0.362992-0.1769667-0.6534497-0.2739451-0.8789189-0.2928927z" style="opacity:.2"/>
 <rect x="11" y="18" width="1" height="2" rx=".25" ry=".25" style="fill:#ffffff"/>
 <rect x="10" y="18.5" width="1" height="2" rx=".25" ry=".25" style="opacity:.2"/>
 <rect x="10" y="18" width="1" height="2" rx=".25" ry=".25" style="fill:#ffffff"/>
 <path d="m2.6766366 1.0035218c-0.075156-0.00632-0.1431199-0.0042-0.2041045 0.00683-0.081313 0.014707-0.1497197 0.044401-0.2070344 0.08982-0.4691518 0.371787-0.3228569 1.8486241 0.4892649 4.9205955 0.4553967 1.722605 0.8309564 2.6399345 1.4775607 3.6113657 0.424576 0.637849 0.6297935 0.87982 1.331074 1.572833 0.628056 0.691897 1.4203035 1.659806 1.4365445 2.473967-0.1803495 1.607186-1.9285128 2.948363-1.9999418 4.316454 0 1.656423 1.3430783 2.99922 2.9999564 2.99922 1.0392617 0.104 2.0695886-1.812182 3.0000436-1.999669 1.123897 0.227149 2.031745 2.005181 3.000044 1.999675 1.656878 0 2.999956-1.342797 2.999956-2.999221-0.07143-1.36809-1.819593-2.709268-1.999942-4.316454 0.01624-0.814161 0.808489-1.78207 1.436545-2.473967 0.70128-0.693013 0.906497-0.934984 1.331074-1.572833 0.646604-0.9714315 1.022163-1.888761 1.47756-3.611366 0.812122-3.0719714 0.958417-4.5488086 0.489265-4.9205956-0.05731-0.04542-0.125721-0.075114-0.207034-0.08982-0.06098-0.011028-0.128949-0.01315-0.204105-0.00683-0.225469 0.018947-0.515926 0.115926-0.878919 0.2928926-0.719865 0.3509514-1.423787 0.8697653-2.216829 1.6333596-2.233893 2.6101677-2.802009 4.4146186-4.576239 6.9462734-0.182431 0.125597-0.651376 0.127896-0.651376 0.127896s-0.468945-0.0023-0.651377-0.127896c-1.788835-2.1729727-2.8308997-5.2497349-4.5762382-6.9462731-0.7930415-0.7635942-1.4969645-1.2824082-2.2168293-1.6333644-0.362992-0.1769667-0.6534497-0.2739451-0.8789189-0.2928927z" style="fill:#b08458"/>
 <path d="m8.5508474 16.5c-0.6338826 0-1.5494576-0.513864-1.5494576-1.147747 0-0.633882-0.06001-1.147746 0.573873-1.147746 1.6293293 0.193869 1.7216203 2.295493 0.9755846 2.295493z" style="opacity:.2"/>
 <path d="m8.5508474 16c-0.6338826 0-1.5494576-0.513864-1.5494576-1.147746 0-0.633883-0.06001-1.147747 0.573873-1.147747 1.6293293 0.193869 1.7216203 2.295493 0.9755846 2.295493z" style="fill:#ffffff"/>
 <path d="m13.44889 16.5c0.633883 0 1.549458-0.513864 1.549458-1.147747 0-0.633882 0.06001-1.147746-0.573873-1.147746-1.62933 0.193869-1.72162 2.295493-0.975585 2.295493z" style="opacity:.2"/>
 <path d="m13.44889 16c0.633883 0 1.549458-0.513864 1.549458-1.147746 0-0.633883 0.06001-1.147747-0.573873-1.147747-1.62933 0.193869-1.72162 2.295493-0.975585 2.295493z" style="fill:#ffffff"/>
 <path d="m11.000001 19c-0.643848-0.06586-1.1967379-1.021922-0.932424-1.493087 0.282039-0.371546 0.636024-0.511271 0.932424-0.50681 0.2964-0.0044 0.650384 0.135264 0.932422 0.50681 0.264315 0.471165-0.288575 1.42723-0.932422 1.493087z" style="fill:#bf3667"/>
 <path d="m3.0213533 2.1542969c0.00153 0.1076756-0.011838 0.1472014 0.00293 0.2958984 0.069115 0.6958932 0.2975357 1.8039532 0.6972657 3.3164062 0.4430953 1.676533 0.7590478 2.435816 1.3437498 3.3144535h-1e-3c0.406856 0.611396 0.514278 0.736067 1.2021485 1.416016l0.01953 0.01855 0.01758 0.02051c0.2942255 0.324222 0.655323 0.697799 0.970703 1.136719 0.513895-0.576447 1.154331-1.026023 1.8710937-1.313477-0.5047171-0.815344-0.9172216-1.6492685-1.2539062-2.3330035v-1e-3c-1.3924735-2.834778-1.6739995-3.2775055-2.8124775-4.3740023-0.743082-0.7156865-1.3601979-1.1626192-1.9619139-1.4560547-0.0830346-0.0404905-0.0292819-0.0169731-0.0957031-0.0410156zm15.957031 0.00489c-0.04464 0.019448-0.04525 0.01153-0.0957 0.036133-0.601716 0.2934355-1.218832 0.7403682-1.961914 1.4560547-1.138478 1.0964969-1.420004 1.5392244-2.8125 4.3740234v1e-3c-0.336842 0.684054-0.749839 1.518274-1.254883 2.333984 0.717115 0.287323 1.357897 0.736907 1.872071 1.313477 0.315485-0.439203 0.676324-0.813316 0.970703-1.137695l0.01758-0.02051 0.01953-0.01855c0.68787-0.679949 0.795292-0.80462 1.202148-1.416016h-1e-3c0.584679-0.8786385 0.900655-1.63792 1.34375-3.314453 0.39973-1.512453 0.62815-2.6205131 0.697266-3.3164063 0.01454-0.1462435 0.0013-0.184399 0.0029-0.2910156z" style="opacity:.3"/>
 <circle cx="8.5" cy="15.5" r=".5" style="fill:#323232"/>
 <circle cx="13.5" cy="15.5" r=".5" style="fill:#323232"/>
 <path d="m2.6757813 1.0039062c-0.075156-0.00632-0.1421405-0.00517-0.203125 0.00586-0.081313 0.014707-0.1497166 0.044425-0.2070312 0.089844-0.2067426 0.1638366-0.2865994 0.5583978-0.25 1.1933594 0.025779-0.3414417 0.1047631-0.5782641 0.25-0.6933594 0.057315-0.045419 0.1257182-0.075137 0.2070312-0.089844 0.060985-0.01103 0.1279691-0.012179 0.203125-0.00586 0.2254692 0.0189477 0.5159142 0.1160021 0.8789063 0.2929688 0.7198647 0.3509562 1.4237553 0.8692183 2.2167968 1.6328125 1.7453384 1.6965382 2.7873368 4.7742939 4.5761716 6.9472655 0.182432 0.125596 0.652344 0.126953 0.652344 0.126953s0.469913-0.0014 0.652344-0.126953c1.77423-2.5316537 2.342279-4.3370978 4.576172-6.9472655 0.793042-0.7635943 1.496931-1.2818611 2.216796-1.6328125 0.362994-0.1769666 0.653438-0.2740218 0.878907-0.2929688 0.07516-0.00632 0.142145-0.00517 0.203125 0.00586 0.08131 0.014706 0.149721 0.044424 0.207031 0.089844 0.145237 0.1150953 0.224221 0.3519177 0.25 0.6933594 0.0366-0.6349616-0.04326-1.0295228-0.25-1.1933594-0.05731-0.04542-0.125718-0.075138-0.207031-0.089844-0.06098-0.011028-0.127969-0.012179-0.203125-0.00586-0.225469 0.018947-0.515913 0.1160022-0.878907 0.2929688-0.719865 0.3509514-1.423754 0.8692182-2.216796 1.6328125-2.233893 2.6101677-2.801942 4.4156108-4.576172 6.9472655-0.182431 0.125597-0.652344 0.126953-0.652344 0.126953s-0.469912-0.0014-0.652344-0.126953c-1.7888348-2.1729726-2.8308332-5.2507273-4.5761716-6.9472655-0.7930415-0.7635942-1.4969321-1.2818563-2.2167968-1.6328125-0.3629921-0.1769667-0.6534371-0.2740212-0.8789063-0.2929688zm4.2812499 12.859375c-0.2859805 1.52509-1.8883847 2.818015-1.9570312 4.132813 0 0.113245 0.020977 0.220093 0.033203 0.330078 0.1961205-1.309851 1.793907-2.605774 1.966797-4.146484-0.0020562-0.103077-0.0179437-0.209273-0.0429688-0.316407zm8.0859378 0c-0.02502 0.107134-0.04091 0.21333-0.04297 0.316407 0.17289 1.54071 1.770676 2.836634 1.966797 4.146484 0.012227-0.109985 0.033204-0.216833 0.033204-0.330078-0.068647-1.314797-1.671051-2.607723-1.957031-4.132813z" style="fill:#ffffff;opacity:.2"/>
</svg>

<svg xmlns="http://www.w3.org/2000/svg" width="22" height="22" version="1.1" viewBox="0 0 22 22">
 <circle style="opacity:0.2" cx="11" cy="18.5" r="3"/>
 <circle style="fill:#8f6943" cx="11" cy="18" r="3"/>
 <rect style="opacity:0.2" width="1" height="2" x="11" y="18.5" rx=".25" ry=".25"/>
 <path style="opacity:0.2" d="m 2.6766366,1.5038338 c -0.075156,-0.00632 -0.1431199,-0.0042 -0.2041045,0.00683 -0.081313,0.014707 -0.1497197,0.044401 -0.2070344,0.08982 -0.4691518,0.371787 -0.3228569,1.8486241 0.4892649,4.9205955 0.4553967,1.722605 0.8309564,2.6399347 1.4775607,3.6113647 0.424576,0.637849 0.6297935,0.87982 1.331074,1.572833 0.628056,0.691897 1.4203035,1.659806 1.4365445,2.473967 C 6.8195923,15.78643 5.071429,17.127607 5,18.495698 c 0,1.656423 1.3430783,2.99922 2.9999564,2.99922 1.0392617,0.104 2.0695886,-1.812182 3.0000436,-1.999669 1.123897,0.227149 2.031745,2.005181 3.000044,1.999675 1.656878,0 2.999956,-1.342797 2.999956,-2.999221 -0.07143,-1.36809 -1.819593,-2.709268 -1.999942,-4.316454 0.01624,-0.814161 0.808489,-1.78207 1.436545,-2.473967 0.70128,-0.693013 0.906497,-0.934984 1.331074,-1.572833 0.646604,-0.971431 1.022163,-1.88876 1.47756,-3.611365 0.812122,-3.0719714 0.958417,-4.5488086 0.489265,-4.9205956 -0.05731,-0.04542 -0.125721,-0.075114 -0.207034,-0.08982 -0.06098,-0.011028 -0.128949,-0.01315 -0.204105,-0.00683 -0.225469,0.018947 -0.515926,0.115926 -0.878919,0.2928926 C 17.724579,2.1476824 17.020657,2.6664963 16.227615,3.4300906 13.993722,6.0402583 13.425606,7.8447092 11.651376,10.376363 11.468945,10.50196 11,10.504259 11,10.504259 c 0,0 -0.468945,-0.0023 -0.651377,-0.127896 C 8.559788,8.2033913 7.5177233,5.1266291 5.7723848,3.4300909 4.9793433,2.6664967 4.2754203,2.1476827 3.5555555,1.7967265 3.1925635,1.6197598 2.9021058,1.5227814 2.6766366,1.5038338 Z"/>
 <rect style="fill:#ffffff" width="1" height="2" x="11" y="18" rx=".25" ry=".25"/>
 <rect style="opacity:0.2" width="1" height="2" x="10" y="18.5" rx=".25" ry=".25"/>
 <rect style="fill:#ffffff" width="1" height="2" x="10" y="18" rx=".25" ry=".25"/>
 <path style="fill:#b08458" d="m 2.6766366,1.0035218 c -0.075156,-0.00632 -0.1431199,-0.0042 -0.2041045,0.00683 -0.081313,0.014707 -0.1497197,0.044401 -0.2070344,0.08982 -0.4691518,0.371787 -0.3228569,1.8486241 0.4892649,4.9205955 0.4553967,1.722605 0.8309564,2.6399345 1.4775607,3.6113657 0.424576,0.637849 0.6297935,0.87982 1.331074,1.572833 0.628056,0.691897 1.4203035,1.659806 1.4365445,2.473967 C 6.8195923,15.286119 5.071429,16.627296 5,17.995387 c 0,1.656423 1.3430783,2.99922 2.9999564,2.99922 1.0392617,0.104 2.0695886,-1.812182 3.0000436,-1.999669 1.123897,0.227149 2.031745,2.005181 3.000044,1.999675 1.656878,0 2.999956,-1.342797 2.999956,-2.999221 -0.07143,-1.36809 -1.819593,-2.709268 -1.999942,-4.316454 0.01624,-0.814161 0.808489,-1.78207 1.436545,-2.473967 0.70128,-0.693013 0.906497,-0.934984 1.331074,-1.572833 0.646604,-0.9714315 1.022163,-1.888761 1.47756,-3.611366 0.812122,-3.0719714 0.958417,-4.5488086 0.489265,-4.9205956 -0.05731,-0.04542 -0.125721,-0.075114 -0.207034,-0.08982 -0.06098,-0.011028 -0.128949,-0.01315 -0.204105,-0.00683 -0.225469,0.018947 -0.515926,0.115926 -0.878919,0.2928926 C 17.724579,1.6473704 17.020657,2.1661843 16.227615,2.9297786 13.993722,5.5399463 13.425606,7.3443972 11.651376,9.876052 11.468945,10.001649 11,10.003948 11,10.003948 c 0,0 -0.468945,-0.0023 -0.651377,-0.127896 C 8.559788,7.7030793 7.5177233,4.6263171 5.7723848,2.9297789 4.9793433,2.1661847 4.2754203,1.6473707 3.5555555,1.2964145 3.1925635,1.1194478 2.9021058,1.0224694 2.6766366,1.0035218 Z"/>
 <path style="opacity:0.2" d="m 8.5508474,16.5 c -0.6338826,0 -1.5494576,-0.513864 -1.5494576,-1.147747 0,-0.633882 -0.06001,-1.147746 0.573873,-1.147746 C 9.2045921,14.398376 9.2968831,16.5 8.5508474,16.5 Z"/>
 <path style="fill:#ffffff" d="m 8.5508474,16 c -0.6338826,0 -1.5494576,-0.513864 -1.5494576,-1.147746 0,-0.633883 -0.06001,-1.147747 0.573873,-1.147747 C 9.2045921,13.898376 9.2968831,16 8.5508474,16 Z"/>
 <path style="opacity:0.2" d="m 13.44889,16.5 c 0.633883,0 1.549458,-0.513864 1.549458,-1.147747 0,-0.633882 0.06001,-1.147746 -0.573873,-1.147746 C 12.795145,14.398376 12.702855,16.5 13.44889,16.5 Z"/>
 <path style="fill:#ffffff" d="m 13.44889,16 c 0.633883,0 1.549458,-0.513864 1.549458,-1.147746 0,-0.633883 0.06001,-1.147747 -0.573873,-1.147747 C 12.795145,13.898376 12.702855,16 13.44889,16 Z"/>
 <path style="fill:#bf3667" d="m 11.000001,19 c -0.643848,-0.06586 -1.1967379,-1.021922 -0.932424,-1.493087 0.282039,-0.371546 0.636024,-0.511271 0.932424,-0.50681 0.2964,-0.0044 0.650384,0.135264 0.932422,0.50681 0.264315,0.471165 -0.288575,1.42723 -0.932422,1.493087 z"/>
 <path style="opacity:0.3" d="m 3.0213533,2.1542969 c 0.00153,0.1076756 -0.011838,0.1472014 0.00293,0.2958984 0.069115,0.6958932 0.2975357,1.8039532 0.6972657,3.3164062 0.4430953,1.676533 0.7590478,2.435816 1.3437498,3.3144535 h -10e-4 c 0.406856,0.611396 0.514278,0.736067 1.2021485,1.416016 l 0.01953,0.01855 0.01758,0.02051 c 0.2942255,0.324222 0.655323,0.697799 0.970703,1.136719 0.513895,-0.576447 1.154331,-1.026023 1.8710937,-1.313477 C 8.6406369,9.544029 8.2281324,8.7101045 7.8914478,8.0263695 v -10e-4 C 6.4989743,5.1905915 6.2174483,4.747864 5.0789703,3.6513672 4.3358883,2.9356807 3.7187724,2.488748 3.1170564,2.1953125 3.0340218,2.154822 3.0877745,2.1783394 3.0213533,2.1542969 Z m 15.9570307,0.00489 c -0.04464,0.019448 -0.04525,0.01153 -0.0957,0.036133 -0.601716,0.2934355 -1.218832,0.7403682 -1.961914,1.4560547 -1.138478,1.0964969 -1.420004,1.5392244 -2.8125,4.3740234 v 0.001 c -0.336842,0.684054 -0.749839,1.518274 -1.254883,2.333984 0.717115,0.287323 1.357897,0.736907 1.872071,1.313477 0.315485,-0.439203 0.676324,-0.813316 0.970703,-1.137695 l 0.01758,-0.02051 0.01953,-0.01855 c 0.68787,-0.679949 0.795292,-0.80462 1.202148,-1.416016 h -0.001 c 0.584679,-0.8786385 0.900655,-1.63792 1.34375,-3.314453 0.39973,-1.512453 0.62815,-2.6205131 0.697266,-3.3164063 0.01454,-0.1462435 0.0013,-0.184399 0.0029,-0.2910156 z"/>
 <circle style="fill:#323232" cx="8.5" cy="15.5" r=".5"/>
 <circle style="fill:#323232" cx="13.5" cy="15.5" r=".5"/>
 <path style="opacity:0.2;fill:#ffffff" d="m 2.6757813,1.0039062 c -0.075156,-0.00632 -0.1421405,-0.00517 -0.203125,0.00586 -0.081313,0.014707 -0.1497166,0.044425 -0.2070312,0.089844 -0.2067426,0.1638366 -0.2865994,0.5583978 -0.25,1.1933594 0.025779,-0.3414417 0.1047631,-0.5782641 0.25,-0.6933594 0.057315,-0.045419 0.1257182,-0.075137 0.2070312,-0.089844 0.060985,-0.01103 0.1279691,-0.012179 0.203125,-0.00586 C 2.9012505,1.5228539 3.1916955,1.6199083 3.5546876,1.796875 4.2745523,2.1478312 4.9784429,2.6660933 5.7714844,3.4296875 7.5168228,5.1262257 8.5588212,8.2039814 10.347656,10.376953 10.530088,10.502549 11,10.503906 11,10.503906 c 0,0 0.469913,-0.0014 0.652344,-0.126953 1.77423,-2.5316537 2.342279,-4.3370978 4.576172,-6.9472655 0.793042,-0.7635943 1.496931,-1.2818611 2.216796,-1.6328125 0.362994,-0.1769666 0.653438,-0.2740218 0.878907,-0.2929688 0.07516,-0.00632 0.142145,-0.00517 0.203125,0.00586 0.08131,0.014706 0.149721,0.044424 0.207031,0.089844 0.145237,0.1150953 0.224221,0.3519177 0.25,0.6933594 0.0366,-0.6349616 -0.04326,-1.0295228 -0.25,-1.1933594 -0.05731,-0.04542 -0.125718,-0.075138 -0.207031,-0.089844 -0.06098,-0.011028 -0.127969,-0.012179 -0.203125,-0.00586 C 19.09875,1.0228532 18.808306,1.1199084 18.445312,1.296875 17.725447,1.6478264 17.021558,2.1660932 16.228516,2.9296875 13.994623,5.5398552 13.426574,7.3452983 11.652344,9.876953 11.469913,10.00255 11,10.003906 11,10.003906 c 0,0 -0.469912,-0.0014 -0.652344,-0.126953 C 8.5588212,7.7039804 7.5168228,4.6262257 5.7714844,2.9296875 4.9784429,2.1660933 4.2745523,1.6478312 3.5546876,1.296875 3.1916955,1.1199083 2.9012505,1.0228538 2.6757813,1.0039062 Z M 6.9570312,13.863281 C 6.6710507,15.388371 5.0686465,16.681296 5,17.996094 5,18.109339 5.020977,18.216187 5.033203,18.326172 5.2293235,17.016321 6.82711,15.720398 7,14.179688 6.9979438,14.076611 6.9820563,13.970415 6.9570312,13.863281 Z m 8.0859378,0 c -0.02502,0.107134 -0.04091,0.21333 -0.04297,0.316407 0.17289,1.54071 1.770676,2.836634 1.966797,4.146484 C 16.979023,18.216187 17,18.109339 17,17.996094 16.931353,16.681297 15.328949,15.388371 15.042969,13.863281 Z"/>
</svg>
